X:146
T:Iron Leg Hornpipe, The
R:hp 32
C:Trad. ed. Barry Callaghan
S:'Hard Core English' page 38C
O:England
B:Hard Core English ISBN 978 085418 201 5
Z:PJHeadford 2008
M:4/4
L:1/8
Q:1/4=140
K:D
|:AG|F2AF E2AG|FGEF D2A2|B2c2 d2fe|cdBc A2AG|
F2AF E2AG|FGEF D2A2|Bcde fedc|d6:|
|:e2|fgfg efef|fgfg efef|dede cdcd|dede cdcd|
BcBc ABAB|BcBc ABAB|Bcde fedc|d6:|]
"^Alt B music"\
|:e2|fgaf efge|fgaf efge|defd cdec|defd cdec|
BcdB ABcA|BcdB ABcA|Bcde fedc|d6:|]
W:Irwin, Jas Winder. Possible reference to Guiseppe Grimaldi.
W:No time signature in the book.

